places/48/default-folder-network.svg

<?xml version="1.0" encoding="UTF-8" standalone="no"?>
<svg
   width="24"
   height="24"
   viewBox="0 0 24 24"
   fill="none"
   version="1.1"
   id="svg5"
   sodipodi:docname="default-folder-network.svg"
   inkscape:version="1.3 (0e150ed6c4, 2023-07-21)"
   xmlns:inkscape="http://www.inkscape.org/namespaces/inkscape"
   xmlns:sodipodi="http://sodipodi.sourceforge.net/DTD/sodipodi-0.dtd"
   xmlns="http://www.w3.org/2000/svg"
   xmlns:svg="http://www.w3.org/2000/svg">
  <sodipodi:namedview
     id="namedview5"
     pagecolor="#ffffff"
     bordercolor="#000000"
     borderopacity="0.25"
     inkscape:showpageshadow="2"
     inkscape:pageopacity="0.0"
     inkscape:pagecheckerboard="0"
     inkscape:deskcolor="#d1d1d1"
     inkscape:zoom="256"
     inkscape:cx="12.076172"
     inkscape:cy="9.7324219"
     inkscape:window-width="1550"
     inkscape:window-height="1005"
     inkscape:window-x="184"
     inkscape:window-y="36"
     inkscape:window-maximized="1"
     inkscape:current-layer="svg5" />
  <path
     opacity="0.4"
     d="M17.3729 4.42633H14.1355C13.329 4.43166 12.5633 4.07291 12.0522 3.45026L10.9861 1.97639C10.4836 1.34827 9.7179 0.987839 8.9126 1.00031H6.62392C2.51602 1.00031 1.00001 3.41121 1.00001 7.51072L1 10C0.994891 10.4873 9.49859 6.98671 9.5 6.5L11.9968 5.65368C13 6 19.5 5 17.3729 4.42633Z"
     fill="url(#paint0_linear_11_173)"
     id="path1" />
  <path
     fill-rule="evenodd"
     clip-rule="evenodd"
     d="m 21.7153,5.99783 c 0.352,0.41149 0.6239,0.88483 0.8021,1.39578 0.3504,1.05015 0.5126,2.15373 0.4792,3.26009 v 5.7783 c -0.0014,0.4868 -0.0374,0.9728 -0.1076,1.4544 -0.1337,0.85 -0.4328,1.6657 -0.8802,2.4011 -0.2057,0.3553 -0.4555,0.6832 -0.7434,0.9761 -1.3033,1.1962 -3.0339,1.8188 -4.8022,1.7277 H 7.52367 C 5.75254,23.0817 4.01908,22.4594 2.71161,21.2636 2.42714,20.9702 2.1807,20.6422 1.97806,20.2875 1.53322,19.5526 1.24056,18.7361 1.11737,17.8864 1.03904,17.4056 0.999787,16.9192 1,16.432 V 10.6537 C 0.999809,10.1711 1.02593,9.68886 1.07825,9.20911 1.08925,9.12494 1.10575,9.04213 1.12208,8.96019 1.1493,8.82359 1.17605,8.68936 1.17605,8.55514 1.27534,7.97618 1.45645,7.41422 1.71399,6.88605 2.47687,5.25601 4.04177,4.42635 6.60429,4.42635 H 17.363 c 1.4352,-0.111 2.8598,0.32107 3.9905,1.21033 0.1302,0.11042 0.2512,0.2312 0.3618,0.36115 z M 9.76952,12.4155 c 0.576265,-0.125725 1.71988,-0.182793 1.71988,0.4136 0,0 0.04001,0.404205 -0.115623,0.559839 C 10.940292,13.822424 9.65028,13.4894 9.65028,13.4894 c -0.3604699,0 -0.2331094,-0.997027 0.11924,-1.0739 z m 4.46168,0.0015 c -0.576915,-0.125936 -1.7206,-0.183495 -1.7206,0.4124 0,0 -0.06103,0.453681 0.09454,0.609244 0.43348,0.433481 1.509621,0.07883 1.765081,-0.174318 0.04973,-0.04928 0.212767,-0.770534 -0.139019,-0.847326 z m -4.42156,3.406 c 0.1405555,0.0852 1.67976,-0.10113 1.67976,-0.3968 0,0 0.109889,-0.781402 0,-0.9156 -0.154345,-0.18849 -1.7272141,-0.275673 -1.83912,0 -0.085171,0.209813 0.012852,1.223596 0.15936,1.3124 z m 4.207782,-0.267128 C 13.598099,15.835732 13.0902,15.4757 12.5106,15.426 c -0.573255,-0.04916 -0.215762,-0.699638 0,-0.9154 0.43348,-0.43348 1.861281,-0.440119 1.8391,0 -0.0222,0.4405 -0.02818,0.842314 -0.332278,1.045272 z M 10.0718,16.8154 c 0.149966,-0.278612 1.508939,-0.858359 1.503637,-0.365583 l -0.02342,2.176925 c -0.0012,0.113409 -0.201198,0.188734 -0.346017,0.03796 C 11.0553,18.5396 10.92,18.3966 10.8,18.2408 10.657,18.0545 10.547877,17.950349 10.401263,17.707651 10.181313,17.303304 9.952421,17.037187 10.0718,16.8154 Z m 3.8561,0.001 c -0.138793,-0.354416 -0.921971,-0.491077 -1.27695,-0.242661 -0.514607,0.360125 -0.303577,1.859686 -0.303577,1.859686 0.05757,0.211275 0.358822,0.30275 0.446622,0.231281 0.1507,-0.1251 0.286,-0.2681 0.406,-0.4239 0.143,-0.1863 0.33047,-0.401991 0.43767,-0.608791 0.1381,-0.2693 0.296314,-0.407791 0.293828,-0.77497 l -0.0036,-0.04064 z M 9.99804,11.407 c 0.061029,0.144359 1.35995,0.522446 1.49136,0.3965 0.248286,-0.237963 0.0503,-2.4320837 0.0503,-2.4320837 -0.011,-0.077279 -0.353494,-0.1212365 -0.400709,-0.054287 C 11.04618,9.4003506 10.92,9.6034 10.8,9.75916 10.657,9.94552 10.5319,10.1447 10.4247,10.3515 10.2508,10.6908 9.9281572,11.241698 9.99804,11.407 Z m 4.00466,0.0025 c -0.178447,0.26587 -1.408796,0.624156 -1.4921,0.394 C 12.364517,11.489078 12.42214,9.5048486 12.42214,9.5048486 12.4217,9.3914516 12.7062,9.2638404 12.794,9.3353204 c 0.1507,0.12512 0.286,0.26808 0.406,0.42384 0.143,0.18636 0.2681,0.3855396 0.3753,0.5923396 0.1744,0.3403 0.505568,0.941537 0.4274,1.058 z m 2.083597,-0.22615 c 0.397517,-0.01259 1.171709,2.30605 0.866103,2.30605 h -1.5801 c -0.161991,0 -0.211344,-1.409476 -0.1903,-1.5565 0.02149,-0.150127 0.406636,-0.605091 0.72088,-0.722502 z m -0.0639,5.442058 c 0.761924,-0.447035 1.409679,-2.059966 0.524452,-2.099185 l -0.787207,-0.03488 c -0.58225,-0.0258 -0.779485,1.371948 -0.651022,1.724524 -0.0035,0.0171 0.02568,0.07713 0.02568,0.07713 0.06899,0.225662 0.570347,0.518839 0.8881,0.332408 z M 7.985637,16.9464 C 7.613159,16.856525 6.7388388,14.5106 7.04756,14.5106 h 1.58016 c 0.2085431,0 0.2579475,1.537998 0.2453452,1.669572 0.00356,0.0174 -0.0038,0.0958 -0.00711,0.113328 -0.044682,0.236265 -0.7670388,0.680233 -0.88032,0.6529 z m 0.759602,0.821198 C 8.5339727,17.586838 8.5146368,17.499137 8.6714,17.7042 c 0.30768,0.2754 0.6775317,0.622178 0.647584,0.625271 0.043338,-0.02496 0.00965,-0.05066 -0.043449,-0.07085 m 5.880776,-0.36646 c 0.07184,-0.198486 0.02656,-0.05402 -0.03704,0.01501 -0.148132,0.160781 -0.173706,0.22054 -0.405668,0.397049 -0.08441,0.06423 -0.212005,0.02303 -0.102265,0.03832 0.138249,0.01926 0.606484,-0.515655 0.397666,-0.294074 z M 9.4975403,10.086138 c 0.082324,-0.2688063 0.055463,-0.3679219 0.070203,-0.359702 0,0 0.025927,0.052421 -0.00697,0.1705901 -0.1108028,0.3069719 -0.1383876,0.3485149 -0.062016,0.3333149 -0.1009637,0.05648 -0.047429,0.0067 -0.00122,-0.144203 z M 14.572696,9.7351382 c -0.04239,-0.1008792 -0.218281,0.00114 -0.140591,-0.044877 0.10438,-0.080554 1.087721,0.8173098 1.072218,0.8066568 l -0.02041,0.01158 c 0.0087,-0.01971 -0.200142,-0.259316 -0.304543,-0.305478 M 6.563,13.0553 C 6.83412,13.1314 7.11628,12.9736 7.19236,12.703 L 7.22044,12.5983 C 7.29804,12.3276 7.14052,12.0458 6.86936,11.9689 6.5982,11.8921 6.31508,12.0506 6.23744,12.3226 L 6.20936,12.4247 C 6.13328,12.6966 6.29184,12.9792 6.563,13.0553 Z M 6,14 c 0,-0.2819 0.45752,-0.5106 1.02128,-0.5106 h 1.60644 c 0.024,-0.5234 0.08736,-1.0435 0.19,-1.5575 C 8.48196,11.7266 8.2415244,11.495092 7.9141381,11.267375 7.8653074,11.233411 7.81124,11.3094 7.77956,11.36 7.6302,11.5982 7.31492,11.6702 7.07616,11.5208 6.83744,11.3715 6.76468,11.0569 6.91404,10.8187 8.00936,9.06724 9.93448,8.00256 12,8 13.5906,8 15.1174,8.6332 16.2434,9.7566 17.3668,10.8826 18,12.4094 18,14 18,15.5906 17.3668,17.1174 16.2434,18.2434 15.1174,19.3668 13.5906,20 12,20 10.4094,20 8.88256,19.3668 7.7566,18.2434 6.6332,17.1174 6,15.5906 6,14 Z"
     fill="url(#paint1_linear_11_173)"
     id="path2"
     sodipodi:nodetypes="ccccccccccccccccccscccssssssssssscssscasssacscccscsaccccsssscccsssccccssccccsccccccsccccscccccscscsscscsssccsscccscccccsccccscscsscccscc" />
  <defs
     id="defs5">
    <linearGradient
       id="paint0_linear_11_173"
       x1="1"
       y1="10.0464"
       x2="15.5736"
       y2="-1.74826"
       gradientUnits="userSpaceOnUse">
      <stop
         stop-color="#0357D1"
         id="stop2" />
      <stop
         offset="1"
         stop-color="#27CDFC"
         id="stop3" />
    </linearGradient>
    <linearGradient
       id="paint1_linear_11_173"
       x1="1"
       y1="23"
       x2="25.9516"
       y2="10.1298"
       gradientUnits="userSpaceOnUse">
      <stop
         stop-color="#0357D1"
         id="stop4" />
      <stop
         offset="1"
         stop-color="#27CDFC"
         id="stop5" />
    </linearGradient>
  </defs>
</svg>

<svg width="24" height="24" viewBox="0 0 24 24" fill="none" xmlns="http://www.w3.org/2000/svg">
<path opacity="0.4" d="M17.3729 4.42633H14.1355C13.329 4.43166 12.5633 4.07291 12.0522 3.45026L10.9861 1.97639C10.4836 1.34827 9.7179 0.987839 8.9126 1.00031H6.62392C2.51602 1.00031 1.00001 3.41121 1.00001 7.51072L1 10C0.994891 10.4873 9.49859 6.98671 9.5 6.5L11.9968 5.65368C13 6 19.5 5 17.3729 4.42633Z" fill="url(#paint0_linear_11_173)"/>
<path fill-rule="evenodd" clip-rule="evenodd" d="M21.7153 5.99783C22.0673 6.40932 22.3392 6.88266 22.5174 7.39361C22.8678 8.44376 23.03 9.54734 22.9966 10.6537V16.432C22.9952 16.9188 22.9592 17.4048 22.889 17.8864C22.7553 18.7364 22.4562 19.5521 22.0088 20.2875C21.8031 20.6428 21.5533 20.9707 21.2654 21.2636C19.9621 22.4598 18.2315 23.0824 16.4632 22.9913H7.52367C5.75254 23.0817 4.01908 22.4594 2.71161 21.2636C2.42714 20.9702 2.1807 20.6422 1.97806 20.2875C1.53322 19.5526 1.24056 18.7361 1.11737 17.8864C1.03904 17.4056 0.999787 16.9192 1 16.432V10.6537C0.999809 10.1711 1.02593 9.68886 1.07825 9.20911C1.08925 9.12494 1.10575 9.04213 1.12208 8.96019C1.1493 8.82359 1.17605 8.68936 1.17605 8.55514C1.27534 7.97618 1.45645 7.41422 1.71399 6.88605C2.47687 5.25601 4.04177 4.42635 6.60429 4.42635H17.363C18.7982 4.31535 20.2228 4.74742 21.3535 5.63668C21.4837 5.7471 21.6047 5.86788 21.7153 5.99783ZM9.76952 12.4155C10.3156 12.6384 10.8952 12.778 11.4894 12.8291V13.4894H9.65028C9.66868 13.1294 9.70828 12.7709 9.76952 12.4155ZM14.2312 12.417C13.6841 12.6392 13.1043 12.7783 12.5106 12.8294V13.4894H14.3497C14.3313 13.1301 14.292 12.7719 14.2312 12.417ZM9.80964 15.823C10.344 15.6098 10.9098 15.4757 11.4894 15.4262V14.5106H9.65028C9.67252 14.9511 9.72564 15.39 9.80964 15.823ZM14.1904 15.823C13.656 15.6098 13.0902 15.4757 12.5106 15.426V14.5106H14.3497C14.3275 14.9511 14.2744 15.3897 14.1904 15.823ZM10.0718 16.8154C10.5217 16.6254 10.9992 16.5024 11.4894 16.4518V18.8483C11.3883 18.7969 11.2938 18.7362 11.206 18.6647C11.0553 18.5396 10.92 18.3966 10.8 18.2408C10.657 18.0545 10.5319 17.8553 10.4247 17.6485C10.2866 17.3789 10.1681 17.1008 10.0718 16.8154ZM13.9279 16.8164C13.4783 16.6262 13.0008 16.5026 12.5106 16.4518V18.8483C12.6117 18.7969 12.7062 18.7362 12.794 18.6647C12.9447 18.5396 13.08 18.3966 13.2 18.2408C13.343 18.0545 13.4681 17.8553 13.5753 17.6485C13.7134 17.3792 13.8316 17.1014 13.9279 16.8164ZM9.99804 11.407C10.4688 11.6153 10.9721 11.7499 11.4894 11.8035V9.15172C11.3883 9.20308 11.2938 9.26384 11.206 9.33532C11.0553 9.46044 10.92 9.6034 10.8 9.75916C10.657 9.94552 10.5319 10.1447 10.4247 10.3515C10.2508 10.6908 10.1081 11.0436 9.99804 11.407ZM14.0027 11.4095C13.5309 11.6166 13.0274 11.7501 12.5106 11.8035V9.15172C12.6117 9.20308 12.7062 9.26384 12.794 9.33532C12.9447 9.46044 13.08 9.6034 13.2 9.75916C13.343 9.94552 13.4681 10.1447 13.5753 10.3515C13.7497 10.6918 13.8927 11.0457 14.0027 11.4095ZM16.1242 11.2116C16.582 11.8895 16.8679 12.6718 16.9524 13.4894H15.3723C15.3483 12.9667 15.2849 12.4459 15.182 11.9329C15.4647 11.7598 15.7323 11.5599 15.983 11.337L16.1242 11.2116ZM16.0149 16.9456C16.5363 16.2325 16.8613 15.392 16.9524 14.5106H15.3723C15.3454 15.0928 15.2701 15.6726 15.1455 16.2417C15.142 16.2588 15.1384 16.2759 15.1343 16.293C15.4468 16.4796 15.7412 16.699 16.0149 16.9456ZM7.98564 16.9464C7.464 16.233 7.13872 15.3925 7.04756 14.5106H8.62772C8.65456 15.0928 8.72988 15.6726 8.85448 16.2417C8.85804 16.2591 8.86164 16.2762 8.86596 16.2935C8.5532 16.4802 8.25908 16.6997 7.98564 16.9464ZM8.6714 17.7042C8.97908 17.9796 9.31788 18.2143 9.6794 18.403C9.62068 18.309 9.56656 18.212 9.51572 18.1132C9.38348 17.853 9.26604 17.586 9.16596 17.3128C8.99336 17.4317 8.82844 17.5625 8.6714 17.7042ZM15.3291 17.7036C15.1721 17.5625 15.0066 17.432 14.834 17.313C14.734 17.5862 14.6165 17.8533 14.4843 18.1132C14.4334 18.212 14.3793 18.309 14.3206 18.403C14.6824 18.2143 15.0212 17.9794 15.3291 17.7036ZM8.54068 10.4294C8.87796 10.0997 9.25964 9.82144 9.67456 9.6052C9.61764 9.6966 9.565 9.7908 9.51572 9.8868C9.35028 10.2124 9.20784 10.5484 9.09268 10.8935C8.8994 10.7521 8.71428 10.5976 8.54068 10.4294ZM15.3038 10.5736C15.1767 10.6867 15.0444 10.7929 14.9055 10.8892C14.7909 10.5453 14.6489 10.2106 14.4843 9.8868C14.4342 9.78952 14.3811 9.69404 14.3232 9.60136C14.7401 9.81736 15.1256 10.0956 15.4685 10.4276L15.3038 10.5736ZM6.563 13.0553C6.83412 13.1314 7.11628 12.9736 7.19236 12.703L7.22044 12.5983C7.29804 12.3276 7.14052 12.0458 6.86936 11.9689C6.5982 11.8921 6.31508 12.0506 6.23744 12.3226L6.20936 12.4247C6.13328 12.6966 6.29184 12.9792 6.563 13.0553ZM6 14C6 13.7181 6.45752 13.4894 7.02128 13.4894H8.62772C8.65172 12.966 8.71508 12.4459 8.81772 11.9319C8.48196 11.7266 8.1674 11.4844 7.87764 11.2104C7.84392 11.2594 7.81124 11.3094 7.77956 11.36C7.6302 11.5982 7.31492 11.6702 7.07616 11.5208C6.83744 11.3715 6.76468 11.0569 6.91404 10.8187C8.00936 9.06724 9.93448 8.00256 12 8C13.5906 8 15.1174 8.6332 16.2434 9.7566C17.3668 10.8826 18 12.4094 18 14C18 15.5906 17.3668 17.1174 16.2434 18.2434C15.1174 19.3668 13.5906 20 12 20C10.4094 20 8.88256 19.3668 7.7566 18.2434C6.6332 17.1174 6 15.5906 6 14Z" fill="url(#paint1_linear_11_173)"/>
<defs>
<linearGradient id="paint0_linear_11_173" x1="1" y1="10.0464" x2="15.5736" y2="-1.74826" gradientUnits="userSpaceOnUse">
<stop stop-color="#0357D1"/>
<stop offset="1" stop-color="#27CDFC"/>
</linearGradient>
<linearGradient id="paint1_linear_11_173" x1="1" y1="23" x2="25.9516" y2="10.1298" gradientUnits="userSpaceOnUse">
<stop stop-color="#0357D1"/>
<stop offset="1" stop-color="#27CDFC"/>
</linearGradient>
</defs>
</svg>
